;FLAVOR:Marlin
;TIME:412
;Filament used: 0.249969m
;Layer height: 0.28
;MINX:94
;MINY:99
;MINZ:0.28
;MAXX:126
;MAXY:131
;MAXZ:9.8
;Generated with Cura_SteamEngine 4.4.0
M140 S50
M105
M190 S50
M104 S200
M105
M109 S200
M82 ;absolute extrusion mode
M201 X500.00 Y500.00 Z100.00 E5000.00 ;Setup machine max acceleration
M203 X500.00 Y500.00 Z10.00 E50.00 ;Setup machine max feedrate
M204 P500.00 R1000.00 T500.00 ;Setup Print/Retract/Travel acceleration
M205 X8.00 Y8.00 Z0.40 E5.00 ;Setup Jerk
M220 S100 ;Reset Feedrate
M221 S100 ;Reset Flowrate

G28 ;Home

G92 E0 ;Reset Extruder
G1 Z2.0 F3000 ;Move Z Axis up
G1 X10.1 Y20 Z0.28 F5000.0 ;Move to start position
G1 X10.1 Y200.0 Z0.28 F1500.0 E15 ;Draw the first line
G1 X10.4 Y200.0 Z0.28 F5000.0 ;Move to side a little
G1 X10.4 Y20 Z0.28 F1500.0 E30 ;Draw the second line
G92 E0 ;Reset Extruder
G1 Z2.0 F3000 ;Move Z Axis up

G92 E0
G92 E0
G1 F2700 E-5
;LAYER_COUNT:35
;LAYER:0
M107
G0 F6000 X97.198 Y102.264 Z0.28
;TYPE:SKIRT
G1 F2700 E0
G1 F1200 X97.886 Y101.627 E0.04366
G1 X98.626 Y101.051 E0.08732
G1 X99.412 Y100.539 E0.131
G1 X100.239 Y100.097 E0.17467
G1 X101.101 Y99.727 E0.21835
G1 X101.991 Y99.431 E0.26202
G1 X102.903 Y99.213 E0.30568
G1 X103.83 Y99.072 E0.34935
G1 X104.701 Y99.013 E0.39
G1 X105.022 Y99.004 E0.40495
G1 X105.33 Y99 E0.41929
G1 X114.293 Y99 E0.83665
G1 X114.451 Y99.001 E0.844
G1 X115.149 Y99.011 E0.87651
G1 X116.085 Y99.065 E0.92017
G1 X117.013 Y99.197 E0.96381
G1 X117.927 Y99.409 E1.0075
G1 X118.819 Y99.698 E1.05116
G1 X119.684 Y100.061 E1.09484
G1 X120.514 Y100.497 E1.1385
G1 X121.305 Y101.002 E1.1822
G1 X122.049 Y101.573 E1.22587
G1 X122.742 Y102.205 E1.26954
G1 X123.379 Y102.893 E1.3132
G1 X123.954 Y103.634 E1.35687
G1 X124.465 Y104.42 E1.40053
G1 X124.907 Y105.248 E1.44423
G1 X125.276 Y106.11 E1.4879
G1 X125.571 Y107 E1.53155
G1 X125.789 Y107.912 E1.57522
G1 X125.929 Y108.84 E1.61892
G1 X125.987 Y109.701 E1.6591
G1 X125.996 Y110.021 E1.67401
G1 X126 Y110.33 E1.6884
G1 X126 Y119.264 E2.1044
G1 X125.999 Y119.4 E2.11073
G1 X125.99 Y120.127 E2.14459
G1 X125.939 Y121.064 E2.18828
G1 X125.807 Y121.992 E2.23193
G1 X125.598 Y122.906 E2.27559
G1 X125.311 Y123.799 E2.31927
G1 X124.949 Y124.665 E2.36297
G1 X124.515 Y125.496 E2.40663
G1 X124.011 Y126.287 E2.4503
G1 X123.442 Y127.032 E2.49395
G1 X122.811 Y127.727 E2.53766
G1 X122.124 Y128.365 E2.58132
G1 X121.385 Y128.942 E2.62497
G1 X120.599 Y129.454 E2.66865
G1 X119.773 Y129.897 E2.7123
G1 X118.911 Y130.269 E2.75601
G1 X118.022 Y130.565 E2.79964
G1 X117.11 Y130.785 E2.84333
G1 X116.183 Y130.926 E2.88699
G1 X115.299 Y130.987 E2.92825
G1 X114.978 Y130.996 E2.9432
G1 X114.67 Y131 E2.95755
G1 X105.707 Y131 E3.3749
G1 X105.565 Y130.999 E3.38151
G1 X104.867 Y130.99 E3.41402
G1 X103.931 Y130.938 E3.45767
G1 X103.002 Y130.806 E3.50136
G1 X102.088 Y130.596 E3.54503
G1 X101.195 Y130.309 E3.58871
G1 X100.33 Y129.946 E3.63239
G1 X99.499 Y129.512 E3.67604
G1 X98.708 Y129.008 E3.71972
G1 X97.963 Y128.438 E3.7634
G1 X97.269 Y127.807 E3.80707
G1 X96.632 Y127.12 E3.8507
G1 X96.055 Y126.38 E3.89439
G1 X95.543 Y125.594 E3.93807
G1 X95.1 Y124.767 E3.98176
G1 X94.729 Y123.906 E4.02541
G1 X94.433 Y123.016 E4.06909
G1 X94.214 Y122.104 E4.11276
G1 X94.073 Y121.177 E4.15642
G1 X94.013 Y120.288 E4.19791
G1 X94.004 Y119.955 E4.21342
G1 X94 Y119.658 E4.22725
G1 X94 Y110.674 E4.64559
G1 X94.001 Y110.525 E4.65252
G1 X94.01 Y109.86 E4.68349
G1 X94.063 Y108.924 E4.72715
G1 X94.195 Y107.995 E4.77084
G1 X94.406 Y107.081 E4.81452
G1 X94.694 Y106.189 E4.85816
G1 X95.057 Y105.324 E4.90184
G1 X95.492 Y104.493 E4.94552
G1 X95.996 Y103.703 E4.98915
G1 X96.566 Y102.958 E5.03283
G1 X97.198 Y102.264 E5.07654
G0 F6000 X97.589 Y102.439
G1 F1200 X98.274 Y101.823 E5.11944
G1 X99.01 Y101.27 E5.16231
G1 X99.791 Y100.782 E5.20519
G1 X100.611 Y100.364 E5.24804
G1 X101.465 Y100.019 E5.29093
G1 X102.345 Y99.749 E5.33379
G1 X103.245 Y99.557 E5.37665
G1 X104.159 Y99.443 E5.41953
G1 X104.712 Y99.413 E5.44532
G1 X105.033 Y99.404 E5.46028
G1 X105.33 Y99.4 E5.47411
G1 X114.293 Y99.4 E5.89146
G1 X114.445 Y99.401 E5.89854
G1 X115.143 Y99.411 E5.93104
G1 X116.062 Y99.464 E5.97391
G1 X116.973 Y99.597 E6.01678
G1 X117.869 Y99.808 E6.05964
G1 X118.743 Y100.096 E6.10249
G1 X119.59 Y100.459 E6.1454
G1 X120.401 Y100.894 E6.18825
G1 X121.171 Y101.398 E6.2311
G1 X121.895 Y101.967 E6.27398
G1 X122.567 Y102.597 E6.31687
G1 X123.182 Y103.282 E6.35974
G1 X123.735 Y104.018 E6.40261
G1 X124.222 Y104.799 E6.44546
G1 X124.639 Y105.62 E6.48834
G1 X124.984 Y106.474 E6.53123
G1 X125.253 Y107.354 E6.57408
G1 X125.445 Y108.255 E6.61697
G1 X125.558 Y109.168 E6.65981
G1 X125.587 Y109.712 E6.68518
G1 X125.596 Y110.032 E6.70009
G1 X125.6 Y110.33 E6.71396
G1 X125.6 Y119.264 E7.12997
G1 X125.599 Y119.395 E7.13607
G1 X125.59 Y120.122 E7.16992
G1 X125.539 Y121.041 E7.21278
G1 X125.408 Y121.953 E7.25568
G1 X125.198 Y122.849 E7.29854
G1 X124.912 Y123.724 E7.3414
G1 X124.551 Y124.571 E7.38427
G1 X124.117 Y125.383 E7.42714
G1 X123.615 Y126.155 E7.47002
G1 X123.047 Y126.88 E7.51291
G1 X122.419 Y127.553 E7.55577
G1 X121.735 Y128.169 E7.59863
G1 X121 Y128.723 E7.64149
G1 X120.22 Y129.212 E7.68436
G1 X119.4 Y129.631 E7.72724
G1 X118.547 Y129.977 E7.7701
G1 X117.667 Y130.248 E7.81298
G1 X116.767 Y130.441 E7.85584
G1 X115.853 Y130.556 E7.89873
G1 X115.288 Y130.587 E7.92508
G1 X114.967 Y130.596 E7.94003
G1 X114.67 Y130.6 E7.95386
G1 X105.707 Y130.6 E8.37122
G1 X105.57 Y130.599 E8.3776
G1 X104.872 Y130.59 E8.4101
G1 X103.953 Y130.538 E8.45296
G1 X103.042 Y130.407 E8.49582
G1 X102.146 Y130.197 E8.53867
G1 X101.271 Y129.91 E8.58155
G1 X100.424 Y129.548 E8.62444
G1 X99.612 Y129.114 E8.66731
G1 X98.841 Y128.612 E8.71015
G1 X98.116 Y128.044 E8.75304
G1 X97.443 Y127.415 E8.79593
G1 X96.828 Y126.731 E8.83876
G1 X96.274 Y125.996 E8.88162
G1 X95.786 Y125.215 E8.9245
G1 X95.367 Y124.395 E8.96738
G1 X95.021 Y123.542 E9.01025
G1 X94.751 Y122.662 E9.05311
G1 X94.558 Y121.761 E9.09601
G1 X94.444 Y120.848 E9.13886
G1 X94.413 Y120.277 E9.16548
G1 X94.404 Y119.944 E9.181
G1 X94.4 Y119.658 E9.19431
G1 X94.4 Y110.674 E9.61265
G1 X94.401 Y110.531 E9.61931
G1 X94.41 Y109.866 E9.65027
G1 X94.462 Y108.946 E9.69318
G1 X94.594 Y108.035 E9.73604
G1 X94.805 Y107.139 E9.77891
G1 X95.092 Y106.264 E9.82179
G1 X95.455 Y105.418 E9.86465
G1 X95.889 Y104.606 E9.90752
G1 X96.392 Y103.835 E9.95039
G1 X96.961 Y103.111 E9.99327
G1 X97.589 Y102.439 E10.0361
G0 F6000 X97.981 Y102.617
G1 F1200 X98.662 Y102.024 E10.07814
G1 X99.394 Y101.494 E10.12023
G1 X100.169 Y101.031 E10.16226
G1 X100.982 Y100.638 E10.20431
G1 X101.827 Y100.318 E10.24638
G1 X102.696 Y100.075 E10.2884
G1 X103.584 Y99.909 E10.33047
G1 X104.723 Y99.813 E10.38369
G1 X105.044 Y99.804 E10.39864
G1 X105.33 Y99.8 E10.41196
G1 X114.293 Y99.8 E10.82932
G1 X114.439 Y99.801 E10.83612
G1 X115.137 Y99.811 E10.86862
G1 X116.039 Y99.864 E10.91069
G1 X116.932 Y99.996 E10.95273
G1 X117.81 Y100.207 E10.99477
G1 X118.666 Y100.495 E11.03683
G1 X119.493 Y100.857 E11.07887
G1 X120.285 Y101.292 E11.12094
G1 X121.036 Y101.794 E11.163
G1 X121.739 Y102.361 E11.20506
G1 X122.389 Y102.988 E11.24711
G1 X122.981 Y103.67 E11.28916
G1 X123.511 Y104.401 E11.33121
G1 X123.973 Y105.177 E11.37326
G1 X124.366 Y105.99 E11.41531
G1 X124.684 Y106.835 E11.45735
G1 X124.927 Y107.705 E11.49941
G1 X125.092 Y108.593 E11.54147
G1 X125.187 Y109.723 E11.59427
G1 X125.196 Y110.043 E11.60918
G1 X125.2 Y110.33 E11.62254
G1 X125.2 Y119.264 E12.03855
G1 X125.199 Y119.39 E12.04441
G1 X125.19 Y120.117 E12.07827
G1 X125.139 Y121.019 E12.12034
G1 X125.008 Y121.913 E12.16241
G1 X124.799 Y122.791 E12.20443
G1 X124.513 Y123.648 E12.2465
G1 X124.152 Y124.476 E12.28856
G1 X123.72 Y125.268 E12.33057
G1 X123.219 Y126.02 E12.37265
G1 X122.653 Y126.724 E12.41471
G1 X122.028 Y127.375 E12.45673
G1 X121.347 Y127.969 E12.49881
G1 X120.616 Y128.5 E12.54088
G1 X119.842 Y128.964 E12.5829
G1 X119.029 Y129.358 E12.62497
G1 X118.185 Y129.678 E12.667
G1 X117.315 Y129.923 E12.70909
G1 X116.428 Y130.089 E12.75111
G1 X115.277 Y130.187 E12.8049
G1 X114.956 Y130.196 E12.81985
G1 X114.67 Y130.2 E12.83317
G1 X105.707 Y130.2 E13.25052
G1 X105.575 Y130.199 E13.25667
G1 X104.877 Y130.19 E13.28917
G1 X103.976 Y130.139 E13.33119
G1 X103.082 Y130.007 E13.37327
G1 X102.204 Y129.798 E13.4153
G1 X101.347 Y129.511 E13.45738
G1 X100.52 Y129.15 E13.4994
G1 X99.727 Y128.717 E13.54147
G1 X98.976 Y128.216 E13.58351
G1 X98.272 Y127.65 E13.62557
G1 X97.621 Y127.024 E13.66763
G1 X97.028 Y126.343 E13.70967
G1 X96.498 Y125.612 E13.75172
G1 X96.034 Y124.837 E13.79378
G1 X95.64 Y124.024 E13.83585
G1 X95.32 Y123.18 E13.87788
G1 X95.076 Y122.31 E13.91995
G1 X94.91 Y121.422 E13.96201
G1 X94.813 Y120.267 E14.01599
G1 X94.804 Y119.934 E14.0315
G1 X94.8 Y119.658 E14.04435
G1 X94.8 Y110.674 E14.46268
G1 X94.801 Y110.536 E14.46911
G1 X94.81 Y109.871 E14.50008
G1 X94.862 Y108.969 E14.54215
G1 X94.994 Y108.076 E14.58418
G1 X95.204 Y107.198 E14.62622
G1 X95.491 Y106.341 E14.6683
G1 X95.853 Y105.514 E14.71034
G1 X96.286 Y104.722 E14.75237
G1 X96.788 Y103.971 E14.79443
G1 X97.355 Y103.267 E14.83652
G1 X97.981 Y102.617 E14.87854
G1 F2700 E9.87854
;MESH:cube.stl
G0 F6000 X105.414 Y109.335
G0 X105.414 Y110.414
G0 X105.6 Y119.4
;TYPE:WALL-INNER
G1 F2700 E14.87854
G1 F1200 X105.6 Y110.6 E15.28831
G1 X114.4 Y110.6 E15.69807
G1 X114.4 Y119.4 E16.10784
G1 X105.6 Y119.4 E16.5176
G0 F6000 X105.2 Y119.8
;TYPE:WALL-OUTER
G1 F1200 X105.2 Y110.2 E16.96462
G1 X114.8 Y110.2 E17.41164
G1 X114.8 Y119.8 E17.85865
G1 X105.2 Y119.8 E18.30567
G0 F6000 X105.47 Y119.53
G0 X105.71 Y119.01
G0 X105.99 Y119.01
;TYPE:SKIN
G1 F1200 X105.99 Y110.99 E18.67911
G1 X114.01 Y110.99 E19.05256
G1 X114.01 Y119.01 E19.426
G1 X105.99 Y119.01 E19.79945
G0 F6000 X106.404 Y118.849
G1 F1200 X106.15 Y118.595 E19.81617
G0 F6000 X106.15 Y118.029
G1 F1200 X106.969 Y118.849 E19.87014
G0 F6000 X107.535 Y118.849
G1 F1200 X106.15 Y117.463 E19.96138
G0 F6000 X106.15 Y116.898
G1 F1200 X108.101 Y118.849 E20.08985
G0 F6000 X108.666 Y118.849
G1 F1200 X106.15 Y116.332 E20.25557
G0 F6000 X106.15 Y115.766
G1 F1200 X109.232 Y118.849 E20.45856
G0 F6000 X109.798 Y118.849
G1 F1200 X106.15 Y115.201 E20.69878
G0 F6000 X106.15 Y114.635
G1 F1200 X110.363 Y118.849 E20.97625
G0 F6000 X110.929 Y118.849
G1 F1200 X106.15 Y114.069 E21.29099
G0 F6000 X106.15 Y113.504
G1 F1200 X111.495 Y118.849 E21.64297
G0 F6000 X112.06 Y118.849
G1 F1200 X106.15 Y112.938 E22.03218
G0 F6000 X106.15 Y112.372
G1 F1200 X112.626 Y118.849 E22.45867
G0 F6000 X113.192 Y118.849
G1 F1200 X106.15 Y111.807 E22.9224
G0 F6000 X106.15 Y111.241
G1 F1200 X113.757 Y118.849 E23.42336
G0 F6000 X113.849 Y118.375
G1 F1200 X106.624 Y111.15 E23.89914
G0 F6000 X107.19 Y111.15
G1 F1200 X113.849 Y117.809 E24.33765
G0 F6000 X113.849 Y117.243
G1 F1200 X107.756 Y111.15 E24.73888
G0 F6000 X108.321 Y111.15
G1 F1200 X113.849 Y116.678 E25.10291
G0 F6000 X113.849 Y116.112
G1 F1200 X108.887 Y111.15 E25.42967
G0 F6000 X109.453 Y111.15
G1 F1200 X113.849 Y115.546 E25.71915
G0 F6000 X113.849 Y114.981
G1 F1200 X110.018 Y111.15 E25.97143
G0 F6000 X110.584 Y111.15
G1 F1200 X113.849 Y114.415 E26.18644
G0 F6000 X113.849 Y113.849
G1 F1200 X111.15 Y111.15 E26.36417
G0 F6000 X111.715 Y111.15
G1 F1200 X113.849 Y113.284 E26.5047
G0 F6000 X113.849 Y112.718
G1 F1200 X112.281 Y111.15 E26.60795
G0 F6000 X112.847 Y111.15
G1 F1200 X113.849 Y112.152 E26.67394
G0 F6000 X113.849 Y111.587
G1 F1200 X113.412 Y111.15 E26.70271
G0 F6000 X113.412 Y110.8
;MESH:NONMESH
G0 F300 X113.412 Y110.8 Z0.56
G0 F6000 X113.412 Y110.71
G0 X105.782 Y110.782
G0 X105.6 Y119.4
;TIME_ELAPSED:36.903967
;LAYER:1
M140 S50
M106 S85
;TYPE:WALL-INNER
;MESH:cube.stl
G1 F1350 X105.6 Y110.6 E27.11248
G1 X114.4 Y110.6 E27.52224
G1 X114.4 Y119.4 E27.93201
G1 X105.6 Y119.4 E28.34177
G0 F7500 X105.2 Y119.8
;TYPE:WALL-OUTER
G1 F1350 X105.2 Y110.2 E28.78879
G1 X114.8 Y110.2 E29.23581
G1 X114.8 Y119.8 E29.68282
G1 X105.2 Y119.8 E30.12984
G0 F7500 X105.47 Y119.53
G0 X105.71 Y119.01
G0 X105.99 Y119.01
;TYPE:SKIN
G1 F1350 X105.99 Y110.99 E30.50328
G1 X114.01 Y110.99 E30.87673
G1 X114.01 Y119.01 E31.25017
G1 X105.99 Y119.01 E31.62362
G0 F7500 X105.71 Y119.01
G0 X105.71 Y111.638
G0 X106.15 Y111.638
G1 F1350 X106.639 Y111.149 E31.65582
G0 F7500 X107.205 Y111.149
G1 F1350 X106.15 Y112.204 E31.72529
G0 F7500 X106.15 Y112.77
G1 F1350 X107.77 Y111.149 E31.83201
G0 F7500 X108.336 Y111.149
G1 F1350 X106.15 Y113.335 E31.97596
G0 F7500 X106.15 Y113.901
G1 F1350 X108.902 Y111.149 E32.15718
G0 F7500 X109.467 Y111.149
G1 F1350 X106.15 Y114.467 E32.37564
G0 F7500 X106.15 Y115.032
G1 F1350 X110.033 Y111.149 E32.63135
G0 F7500 X110.599 Y111.149
G1 F1350 X106.15 Y115.598 E32.92432
G0 F7500 X106.15 Y116.164
G1 F1350 X111.164 Y111.149 E33.25453
G0 F7500 X111.73 Y111.149
G1 F1350 X106.15 Y116.729 E33.62199
G0 F7500 X106.15 Y117.295
G1 F1350 X112.296 Y111.149 E34.02671
G0 F7500 X112.862 Y111.149
G1 F1350 X106.15 Y117.861 E34.46871
G0 F7500 X106.15 Y118.426
G1 F1350 X113.427 Y111.149 E34.94791
G0 F7500 X113.849 Y111.292
G1 F1350 X106.292 Y118.849 E35.44555
G0 F7500 X106.858 Y118.849
G1 F1350 X113.849 Y111.858 E35.90592
G0 F7500 X113.849 Y112.424
G1 F1350 X107.424 Y118.849 E36.32902
G0 F7500 X107.99 Y118.849
G1 F1350 X113.849 Y112.99 E36.71484
G0 F7500 X113.849 Y113.555
G1 F1350 X108.555 Y118.849 E37.06346
G0 F7500 X109.121 Y118.849
G1 F1350 X113.849 Y114.121 E37.37481
G0 F7500 X113.849 Y114.687
G1 F1350 X109.687 Y118.849 E37.64888
G0 F7500 X110.252 Y118.849
G1 F1350 X113.849 Y115.252 E37.88575
G0 F7500 X113.849 Y115.818
G1 F1350 X110.818 Y118.849 E38.08535
G0 F7500 X111.384 Y118.849
G1 F1350 X113.849 Y116.384 E38.24767
G0 F7500 X113.849 Y116.949
G1 F1350 X111.949 Y118.849 E38.37279
G0 F7500 X112.515 Y118.849
G1 F1350 X113.849 Y117.515 E38.46064
G0 F7500 X113.849 Y118.081
G1 F1350 X113.081 Y118.849 E38.51121
G0 F7500 X113.646 Y118.849
G1 F1350 X113.849 Y118.646 E38.52458
G0 F7500 X114.2 Y118.646
;MESH:NONMESH
G0 F300 X114.2 Y118.646 Z0.84
G0 F7500 X114.29 Y118.646
G0 X114.218 Y119.218
G0 X105.6 Y119.4
;TIME_ELAPSED:51.268560
;LAYER:2
M106 S170
;TYPE:WALL-INNER
;MESH:cube.stl
G1 F1500 X105.6 Y110.6 E38.93435
G1 X114.4 Y110.6 E39.34411
G1 X114.4 Y119.4 E39.75387
G1 X105.6 Y119.4 E40.16364
G0 F9000 X105.2 Y119.8
;TYPE:WALL-OUTER
G1 F1500 X105.2 Y110.2 E40.61066
G1 X114.8 Y110.2 E41.05767
G1 X114.8 Y119.8 E41.50469
G1 X105.2 Y119.8 E41.9517
G0 F9000 X105.47 Y119.53
G0 X105.71 Y119.01
G0 X105.99 Y119.01
;TYPE:SKIN
G1 F1500 X105.99 Y110.99 E42.32515
G1 X114.01 Y110.99 E42.69859
G1 X114.01 Y119.01 E43.07204
G1 X105.99 Y119.01 E43.44548
G0 F9000 X106.404 Y118.849
G1 F1500 X106.15 Y118.595 E43.46221
G0 F9000 X106.15 Y118.029
G1 F1500 X106.969 Y118.849 E43.51618
G0 F9000 X107.535 Y118.849
G1 F1500 X106.15 Y117.463 E43.60741
G0 F9000 X106.15 Y116.898
G1 F1500 X108.101 Y118.849 E43.73589
G0 F9000 X108.666 Y118.849
G1 F1500 X106.15 Y116.332 E43.90161
G0 F9000 X106.15 Y115.766
G1 F1500 X109.232 Y118.849 E44.10459
G0 F9000 X109.798 Y118.849
G1 F1500 X106.15 Y115.201 E44.34482
G0 F9000 X106.15 Y114.635
G1 F1500 X110.363 Y118.849 E44.62229
G0 F9000 X110.929 Y118.849
G1 F1500 X106.15 Y114.069 E44.93702
G0 F9000 X106.15 Y113.504
G1 F1500 X111.495 Y118.849 E45.289
G0 F9000 X112.06 Y118.849
G1 F1500 X106.15 Y112.938 E45.67822
G0 F9000 X106.15 Y112.372
G1 F1500 X112.626 Y118.849 E46.10471
G0 F9000 X113.192 Y118.849
G1 F1500 X106.15 Y111.807 E46.56844
G0 F9000 X106.15 Y111.241
G1 F1500 X113.757 Y118.849 E47.0694
G0 F9000 X113.849 Y118.375
G1 F1500 X106.624 Y111.15 E47.54518
G0 F9000 X107.19 Y111.15
G1 F1500 X113.849 Y117.809 E47.98369
G0 F9000 X113.849 Y117.243
G1 F1500 X107.756 Y111.15 E48.38492
G0 F9000 X108.321 Y111.15
G1 F1500 X113.849 Y116.678 E48.74895
G0 F9000 X113.849 Y116.112
G1 F1500 X108.887 Y111.15 E49.07571
G0 F9000 X109.453 Y111.15
G1 F1500 X113.849 Y115.546 E49.36519
G0 F9000 X113.849 Y114.981
G1 F1500 X110.018 Y111.15 E49.61747
G0 F9000 X110.584 Y111.15
G1 F1500 X113.849 Y114.415 E49.83247
G0 F9000 X113.849 Y113.849
G1 F1500 X111.15 Y111.15 E50.01021
G0 F9000 X111.715 Y111.15
G1 F1500 X113.849 Y113.284 E50.15074
G0 F9000 X113.849 Y112.718
G1 F1500 X112.281 Y111.15 E50.25399
G0 F9000 X112.847 Y111.15
